X:11
T:Wohlfahrt 11
C:Franz Wohlfahrt / K.H. Aiquoni
L:1/16
Q:1/4=90
M:2/4
I:linebreak $
K:F
"F" C=B,(CB,) CB,(CB,) | .C2.A2.F2.A,2 |"C7" _B,A,((B,A,)) B,A,((B,A,)) | .B,2.G2.E2.D2 |$ 
"F" C=B,(CB,) CB,(CB,) | .C2.A2.G2.F2 |"C" EG(AG)"G7" F=B(ed) |"C" .c2.G2.E2.D2 |$ 
"F" C=B,(CB,) CB,(CB,) | .C2.A2.F2.A,2 |"C7" _B,A,(B,A,) B,A,(B,A,) | .B,2.G2.E2.D2 |$ 
"F" C=B,(CB,) CB,(CB,) | .C2.A2.G2.F2 |"C" EG(AG)"G7" F=B(ed) |"C" .c2.G2.E2.C2 ||$ 
"C7" (_B,A,)CB, (G^F)AG |"F" =FE(GF) C=B,(DC) |"C7" (_B,A,)CB, (G^F)AG |"F" =FE(GF) C=B,(DC) |$ 
"F7" (FE)GF (_ED)FE |"Bb" DG(FD) B,D(Fd) |"F" (cA)EF"C7" (AG)DE |"F" FE(GF) C=B,(DC) |$ 
"Bb" (_B,A,)CB, (G^F)AG |"F" =FE(GF) C=B,(DC) |"Bb" (_B,A,)CB, (G^F)AG |"F" =FE(GF) C=B,(DC) |$ 
"F7" =FE(GF) _EDFE |"Bb" DG(FD) B,D(Fd) |"F" (cA)=EF"C7" (AG)DE |"F" (FE)GF C=B,DC |$ 
"G7" .=B,2.D2.G2.F2 |"C" (ED)FE C=B,DC |"G7" .=B,2.D2.G2.F2 |"C" (ED)FE (C=B,)DC |$ 
"F" .A,2.C2.F2.A2 |"F" (c=B)dc"C7" (G^F)AG |"F" .=F2.D2.A,2.=B,2 |"C7" (C=B,)CD (ED)CB, |$ 
"F" C=B,(CB,) CB,(CB,) | .C2.A2.F2.A,2 |"C7" _B,A,B,A, B,A,B,A, | .B,2.G2.E2.D2 |$ 
"F" C=B,CB, CB,CB, | .C2.F2.A2.c2 |"Gm" dB(DG)"C7" FE(DE) |"F" .F2.A2.F2 z2 |] 



